!!! OTL: Literature34
!!! Chapter: 5
!!! Section: I
!!! Page: 351
!!! Mode: 
!!! Encoder: DJB
**kern
*staff1
*I"Piano
=1-
*clefG2
*k[f#]
*G:
*M2/4
4.d/
8g/
=2
8b/L
8a/J
16g/LK
8.d/J
=3
4.e/
8a/
=4
8cc\L
8a\J
16e/LK
8.e/J
=5
8f#/L
8f#/J
16f#/LK
8f#/
16g/Jk
=6
8a/L
8a/J
8.a/L
16f#/Jk
=7
8g/L
8f#/J
8g/L
8a/J
=8
4.b\
8r
=9
4.d/
8g/
=10
!!linebreak:original
8b/L
8a/J
16g/LK
8.d/J
=11
4.e/
8a/
=12
8cc\L
8a\J
16e/LK
8.e/J
=13
8f#/L
8f#/J
16f#/LK
8f#/
16g/Jk
=14
8a/L
8a/J
8.cc\L
16cc\Jk
=15
8.b\L
16cc\Jk
8b/L
8a/J
=16
4.g/
8r
==
*-
